src/22/actions/mail-mark-unread-new.svg

<svg xmlns="http://www.w3.org/2000/svg" viewBox="0 0 22 22">
  <defs id="defs3051">
    <style type="text/css" id="current-color-scheme">
      .ColorScheme-Text {
        color:#5d656b;
      }
      </style>
  </defs>
 <path 
    style="fill:currentColor;fill-opacity:1;stroke:none" 
    d="M 1 3 L 1 4 L 1 12 L 1 18 L 1 18.414062 L 1 19 L 2 19 L 8 19 L 14 19 L 14 18 L 8 18 L 2 18 L 2 17.414062 L 2.4628906 16.951172 L 8.7304688 10.683594 L 10.183594 12.134766 L 10.998047 12.949219 L 11 12.949219 L 11.816406 12.134766 L 13.269531 10.683594 L 14.585938 12 L 16 12 L 13.976562 9.9765625 L 19.728516 4.2226562 L 19.951172 4 L 20 4 L 20 4.2226562 L 20 12 L 21 12 L 21 3 L 20.951172 3 L 20 3 L 19.537109 3 L 2.4628906 3 L 2 3 L 1 3 z M 2 4 L 2.0488281 4 L 2.2714844 4.2226562 L 8.0234375 9.9765625 L 2 16 L 2 12 L 2 4.2226562 L 2 4 z M 3.4628906 4 L 18.537109 4 L 11 11.537109 L 3.4628906 4 z M 18 13 L 17.425781 14.613281 L 15.878906 13.878906 L 16.613281 15.425781 L 15 16 L 16.613281 16.574219 L 15.878906 18.121094 L 17.425781 17.386719 L 18 19 L 18.574219 17.386719 L 20.121094 18.121094 L 19.386719 16.574219 L 21 16 L 19.386719 15.425781 L 20.121094 13.878906 L 18.574219 14.613281 L 18 13 z "
    class="ColorScheme-Text"
    />  
</svg>

<svg xmlns="http://www.w3.org/2000/svg" viewBox="0 0 22 22"><path d="M1 3v16h13v-1H2v-.586l.463-.463 6.267-6.267 1.454 1.45.814.815H11l.816-.814 1.454-1.451L14.586 12H16l-2.023-2.023 5.752-5.754L19.95 4H20v8h1V3H1zm1 1h.049l.222.223 5.752 5.754L2 16V4zm1.463 0h15.074L11 11.537 3.463 4zM18 13l-.574 1.613-1.547-.734.734 1.547L15 16l1.613.574-.734 1.547 1.547-.734L18 19l.574-1.613 1.547.734-.734-1.547L21 16l-1.613-.574.734-1.547-1.547.734L18 13z" fill="currentColor" color="#5d656b"/></svg>
